svg/u1fa84.svg

<svg viewBox="0 0 128 128" xmlns="http://www.w3.org/2000/svg">
  <g id="Layer_3">
    <g>
      <g>
        <linearGradient id="SVGID_1_" gradientTransform="matrix(0.7071 0.7071 -0.7895 0.7895 69.2392 -17.7043)" gradientUnits="userSpaceOnUse" x1="50.0386" x2="58.7966" y1="68.9043" y2="68.9043">
          <stop offset="0.5947" stop-color="#616161"/>
          <stop offset="0.7746" stop-color="#565656"/>
          <stop offset="1" stop-color="#424242"/>
        </linearGradient>
        <polygon fill="url(#SVGID_1_)" points="10.8,123.89 4.61,117.69 95.84,26.46 102.03,32.65 "/>
        <linearGradient id="SVGID_2_" gradientUnits="userSpaceOnUse" x1="88.8798" x2="95.6655" y1="34.5181" y2="41.3038">
          <stop offset="0.2622" stop-color="#F5F5F5"/>
          <stop offset="0.4658" stop-color="#EAEAEA"/>
          <stop offset="0.8221" stop-color="#CDCDCD"/>
          <stop offset="0.9891" stop-color="#BDBDBD"/>
        </linearGradient>
        <path d="M100.04,28.46c-2.25-2.25-4.19-2-4.19-2L79.73,42.58c0.95-0.21,2.62,0.6,4.11,2.08 c1.48,1.48,2.29,3.15,2.08,4.11l16.12-16.12C102.03,32.65,102.29,30.72,100.04,28.46z" fill="url(#SVGID_2_)"/>
        <linearGradient id="SVGID_3_" gradientUnits="userSpaceOnUse" x1="13.9134" x2="20.7149" y1="109.4758" y2="116.2774">
          <stop offset="0.2622" stop-color="#F5F5F5"/>
          <stop offset="0.4658" stop-color="#EAEAEA"/>
          <stop offset="0.8221" stop-color="#CDCDCD"/>
          <stop offset="0.9891" stop-color="#BDBDBD"/>
        </linearGradient>
        <path d="M25.1,103.4c-2.25-2.25-4.19-2-4.19-2L4.74,117.56c0.95-0.21,2.67,0.56,4.16,2.04 c1.48,1.48,2.25,3.21,2.04,4.16l16.16-16.17C27.1,107.59,27.35,105.65,25.1,103.4z" fill="url(#SVGID_3_)"/>
        <ellipse cx="7.8" cy="120.7" fill="#9E9E9E" rx="1.94" ry="4.38" transform="matrix(0.7071 -0.7071 0.7071 0.7071 -83.0625 40.8672)"/>
        <linearGradient id="SVGID_4_" gradientUnits="userSpaceOnUse" x1="68.3861" x2="102.9845" y1="60.1069" y2="25.5085">
          <stop offset="0" stop-color="#FADA80" stop-opacity="0"/>
          <stop offset="1" stop-color="#FADA80"/>
        </linearGradient>
        <path d="M95.82,26.48L27.88,94.43c-0.76,0.76,0.01,2.76,1.72,4.46 c1.71,1.71,3.71,2.48,4.46,1.72l67.95-67.95c0,0,0.42-1.88-1.98-4.21S95.82,26.48,95.82,26.48z" fill="url(#SVGID_4_)" opacity="0.85"/>
        <linearGradient id="SVGID_5_" gradientUnits="userSpaceOnUse" x1="-2.5097" x2="21.4338" y1="131.0027" y2="107.0592">
          <stop offset="0" stop-color="#1A237E"/>
          <stop offset="0.186" stop-color="#1D2A87" stop-opacity="0.814"/>
          <stop offset="0.4903" stop-color="#243DA0" stop-opacity="0.5097"/>
          <stop offset="0.873" stop-color="#2F5CC7" stop-opacity="0.127"/>
          <stop offset="1" stop-color="#3367D6" stop-opacity="0"/>
        </linearGradient>
        <path d="M72.59,49.71L4.65,117.66c-0.76,0.76,0.01,2.76,1.72,4.46 c1.71,1.71,3.71,2.48,4.46,1.72L78.79,55.9c0,0,0.42-1.88-1.98-4.21C74.4,49.37,72.59,49.71,72.59,49.71z" fill="url(#SVGID_5_)" opacity="0.22"/>
      </g>
      <radialGradient id="SVGID_6_" cx="75.9183" cy="23.0455" gradientTransform="matrix(0.9993 0.038 -0.038 0.9993 0.9277 -2.8392)" gradientUnits="userSpaceOnUse" r="14.7841">
        <stop offset="0" stop-color="#FFEB3B"/>
        <stop offset="1" stop-color="#FBC02D"/>
      </radialGradient>
      <path d="M68.37,18.82l5.98-5.96c0.33-0.33,0.9-0.06,0.85,0.41l-0.77,6.99 c-0.03,0.27,0.16,0.52,0.44,0.55l8.56,1.02c0.5,0.06,0.61,0.74,0.14,0.95l-8.92,3.99c-0.13,0.06-0.23,0.18-0.27,0.32l-2.58,8.85 c-0.12,0.43-0.7,0.49-0.91,0.1l-3.99-7.25c-0.09-0.17-0.28-0.27-0.48-0.26l-7.66,0.62c-0.47,0.04-0.72-0.53-0.39-0.85l5.08-4.95 c0.15-0.14,0.19-0.37,0.11-0.56l-2.69-6.15c-0.18-0.42,0.25-0.85,0.67-0.65l6.29,2.94C68,19.01,68.22,18.97,68.37,18.82z" fill="url(#SVGID_6_)"/>
      <radialGradient id="SVGID_7_" cx="99.3854" cy="64.9549" gradientTransform="matrix(0.9392 -0.3435 0.3435 0.9392 -17.3837 37.6633)" gradientUnits="userSpaceOnUse" r="11.883">
        <stop offset="0" stop-color="#FFEB3B"/>
        <stop offset="1" stop-color="#FBC02D"/>
      </radialGradient>
      <path d="M90.09,63.26l4.74,2.19c0.12,0.06,0.26,0.04,0.36-0.04l4.75-3.59 c0.25-0.19,0.59,0.01,0.57,0.31l-0.45,5.9c-0.01,0.13,0.05,0.26,0.17,0.33l4.53,2.8c0.27,0.17,0.2,0.59-0.12,0.65l-5.68,1.17 c-0.14,0.03-0.25,0.13-0.28,0.27l-1.21,5.35c-0.07,0.32-0.5,0.38-0.66,0.09l-2.52-4.61c-0.06-0.12-0.19-0.19-0.32-0.19l-5.96,0.19 c-0.31,0.01-0.48-0.35-0.29-0.59l3.84-4.59c0.09-0.1,0.11-0.24,0.06-0.37l-2.02-4.82C89.49,63.42,89.8,63.12,90.09,63.26z" fill="url(#SVGID_7_)"/>
      <radialGradient id="SVGID_8_" cx="134.5868" cy="-6.3542" gradientTransform="matrix(-0.2474 0.9423 -1.0398 -0.1868 134.7166 -108.9707)" gradientUnits="userSpaceOnUse" r="16.4519">
        <stop offset="0.3247" stop-color="#FFEB3B"/>
        <stop offset="1" stop-color="#FBC02D"/>
      </radialGradient>
      <path d="M109.65,11.65l8.43-3.74c0.42-0.19,0.79,0.23,0.57,0.63l-4.17,7.68 c-0.1,0.18-0.08,0.4,0.05,0.54l9.03,8.76c0.27,0.28,0.04,0.78-0.37,0.8l-11.08-1.95c-0.17,0.01-0.33,0.11-0.42,0.27l-5.83,10.67 c-0.22,0.39-0.78,0.35-0.87-0.06l-1.14-10.39c-0.04-0.18-0.2-0.31-0.39-0.33l-9.15-1.49c-0.39-0.03-0.54-0.5-0.24-0.79l7.65-5.88 c0.11-0.11,0.17-0.26,0.15-0.41L100.5,4.38c-0.04-0.44,0.51-0.73,0.82-0.43l7.82,7.62C109.27,11.69,109.47,11.72,109.65,11.65z" fill="url(#SVGID_8_)"/>
      <path d="M96.29,26.87c-3.74,0.96-7.53,1.79-11.4,2.11c-3.87,0.35-7.8,0.07-11.62-0.62 c-3.82-0.71-7.57-1.6-11.35-2.3c-3.78-0.7-7.58-1.26-11.4-1.7c-1.91-0.22-3.83-0.38-5.74-0.57c-1.87-0.18-3.72-0.13-5.48,0.28 c-1.73,0.44-3.34,1.27-4.38,2.63c-1.05,1.34-1.55,3.08-1.55,4.87c-0.02,3.61,1.43,7.21,3.27,10.46c1.85,3.27,4.28,6.24,6.71,9.21 c4.84,5.96,10.07,11.63,15.26,17.34c2.6,2.86,5.2,5.71,7.76,8.61c2.58,2.88,5.07,5.85,7.45,8.91c2.39,3.05,4.66,6.24,6.51,9.7 c0.46,0.84,0.97,1.77,1.12,2.89c0.05,0.57-0.01,1.2-0.33,1.76c-0.32,0.56-0.85,0.91-1.36,1.14c-1.05,0.42-2.09,0.45-3.09,0.4 c-1-0.06-1.98-0.22-2.94-0.44c-3.82-0.93-7.39-2.52-10.83-4.31c-1.72-0.9-3.4-1.86-5.05-2.87c-1.64-1.02-3.25-2.1-4.83-3.2 c3.28,2.04,6.64,3.94,10.11,5.59c3.47,1.64,7.08,3.07,10.79,3.82c0.93,0.17,1.86,0.31,2.78,0.34c0.92,0.03,1.85-0.05,2.59-0.37 c0.36-0.17,0.66-0.39,0.81-0.69c0.15-0.29,0.19-0.66,0.15-1.05c-0.12-0.8-0.55-1.6-1.04-2.43c-1.87-3.3-4.16-6.38-6.6-9.34 C62.85,75.2,51.73,64.44,41.81,52.5c-2.43-3.01-4.89-6.07-6.82-9.54c-1.9-3.44-3.47-7.26-3.42-11.43 c0.02-2.06,0.62-4.23,1.98-5.93c1.35-1.73,3.37-2.73,5.36-3.21c2.01-0.44,4.07-0.49,6.04-0.26c1.92,0.24,3.85,0.44,5.77,0.71 c3.84,0.54,7.66,1.2,11.45,1.99c3.79,0.8,7.54,1.76,11.29,2.57c3.74,0.82,7.56,1.25,11.4,1.05 C88.69,28.27,92.5,27.62,96.29,26.87z" fill="#FDD835"/>
      <radialGradient id="SVGID_9_" cx="92.7608" cy="70.0926" gradientTransform="matrix(0.8599 0.5105 -0.306 0.5153 34.4455 -13.3849)" gradientUnits="userSpaceOnUse" r="93.7294">
        <stop offset="0" stop-color="#FFEE58" stop-opacity="0"/>
        <stop offset="1" stop-color="#FDD835"/>
      </radialGradient>
      <path d="M67.78,35.64c-11.25,2.62-24.16-5-36.08-3.66c-4.55,0.6-6.42,6.04-2.05,14.66 c8.58,14.77,21.1,23.49,25.72,28.9c-6.21-3.48-18.97-12.65-27.84-21.28c-13.35-12.8-10.88-28.8,1.5-28.75 c4.15-0.4,12.18,1.6,15.54,2.83C47.88,29.67,59.15,34.58,67.78,35.64z" fill="url(#SVGID_9_)"/>
    </g>
  </g>
</svg>

<svg viewBox="0 0 128 128" xmlns="http://www.w3.org/2000/svg">
  <defs>
    <radialGradient id="SVGID_6_" cx="76.737425" cy="20.173163" gradientTransform="matrix(0.9993 0.038 -0.038 0.9993 0 0)" gradientUnits="userSpaceOnUse" r="14.7841">
      <stop offset="0" stop-color="#FFEB3B"/>
      <stop offset="1" stop-color="#FBC02D"/>
    </radialGradient>
    <radialGradient id="SVGID_7_" cx="70.123886" cy="94.354357" gradientTransform="matrix(0.9392 -0.3435 0.3435 0.9392 0 0)" gradientUnits="userSpaceOnUse" r="11.883">
      <stop offset="0" stop-color="#FFEB3B"/>
      <stop offset="1" stop-color="#FBC02D"/>
    </radialGradient>
    <radialGradient id="SVGID_8_" cx="-0.374588" cy="-103.802895" gradientTransform="matrix(-0.2474 0.9423 -1.0398 -0.1868 0 0)" gradientUnits="userSpaceOnUse" r="16.4519">
      <stop offset="0.3247" stop-color="#FFEB3B"/>
      <stop offset="1" stop-color="#FBC02D"/>
    </radialGradient>
    <radialGradient id="SVGID_9_" cx="115.543285" cy="21.547367" gradientTransform="matrix(0.8599 0.5105 -0.306 0.5153 0 0)" gradientUnits="userSpaceOnUse" r="93.7294">
      <stop offset="0" stop-color="#FFEE58" stop-opacity="0"/>
      <stop offset="1" stop-color="#FDD835"/>
    </radialGradient>
    <linearGradient id="SVGID_1_" gradientTransform="matrix(0.7071 0.7071 -0.7895 0.7895 0 0)" gradientUnits="userSpaceOnUse" x1="86.479627" x2="95.237627" y1="13.841919" y2="13.841919">
      <stop offset="0.5947" stop-color="#616161"/>
      <stop offset="0.7746" stop-color="#565656"/>
      <stop offset="1" stop-color="#424242"/>
    </linearGradient>
    <linearGradient id="SVGID_2_" gradientUnits="userSpaceOnUse" x1="88.8798" x2="95.6655" y1="34.5181" y2="41.3038">
      <stop offset="0.2622" stop-color="#F5F5F5"/>
      <stop offset="0.4658" stop-color="#EAEAEA"/>
      <stop offset="0.8221" stop-color="#CDCDCD"/>
      <stop offset="0.9891" stop-color="#BDBDBD"/>
    </linearGradient>
    <linearGradient id="SVGID_3_" gradientUnits="userSpaceOnUse" x1="13.9134" x2="20.7149" y1="109.4758" y2="116.2774">
      <stop offset="0.2622" stop-color="#F5F5F5"/>
      <stop offset="0.4658" stop-color="#EAEAEA"/>
      <stop offset="0.8221" stop-color="#CDCDCD"/>
      <stop offset="0.9891" stop-color="#BDBDBD"/>
    </linearGradient>
    <linearGradient id="SVGID_4_" gradientUnits="userSpaceOnUse" x1="68.3861" x2="102.9845" y1="60.1069" y2="25.5085">
      <stop offset="0" stop-color="#FADA80" stop-opacity="0"/>
      <stop offset="1" stop-color="#FADA80"/>
    </linearGradient>
    <linearGradient id="SVGID_5_" gradientUnits="userSpaceOnUse" x1="-2.5097" x2="21.4338" y1="131.0027" y2="107.0592">
      <stop offset="0" stop-color="#1A237E"/>
      <stop offset="0.186" stop-color="#1D2A87" stop-opacity="0.814"/>
      <stop offset="0.4903" stop-color="#243DA0" stop-opacity="0.5097"/>
      <stop offset="0.873" stop-color="#2F5CC7" stop-opacity="0.127"/>
      <stop offset="1" stop-color="#3367D6" stop-opacity="0"/>
    </linearGradient>
  </defs>
  <path d="M10.8,123.89 L4.61,117.69 L95.84,26.46 L102.03,32.65 Z" fill="url(#SVGID_1_)"/>
  <path d="M100.04,28.46 C97.79,26.21 95.85,26.46 95.85,26.46 L79.73,42.58 C80.68,42.37 82.35,43.18 83.84,44.66 C85.32,46.14 86.13,47.81 85.92,48.77 L102.04,32.65 C102.03,32.65 102.29,30.72 100.04,28.46 Z" fill="url(#SVGID_2_)"/>
  <path d="M25.1,103.4 C22.85,101.15 20.91,101.4 20.91,101.4 L4.74,117.56 C5.69,117.35 7.41,118.12 8.9,119.6 C10.38,121.08 11.15,122.81 10.94,123.76 L27.1,107.59 C27.1,107.59 27.35,105.65 25.1,103.4 Z" fill="url(#SVGID_3_)"/>
  <path d="M9.172,119.327 C10.882,121.037 11.655,123.038 10.897,123.796 C10.139,124.553 8.139,123.781 6.428,122.071 C4.718,120.36 3.945,118.359 4.703,117.602 C5.46,116.844 7.461,117.617 9.172,119.327 Z" fill="#9E9E9E"/>
  <path d="M95.82,26.48 L27.88,94.43 C27.12,95.19 27.89,97.19 29.6,98.89 C31.31,100.6 33.31,101.37 34.06,100.61 L102.01,32.66 C102.01,32.66 102.43,30.78 100.03,28.45 C97.63,26.12 95.82,26.48 95.82,26.48 Z" fill="url(#SVGID_4_)" opacity="0.85"/>
  <path d="M72.59,49.71 L4.65,117.66 C3.89,118.42 4.66,120.42 6.37,122.12 C8.08,123.83 10.08,124.6 10.83,123.84 L78.79,55.9 C78.79,55.9 79.21,54.02 76.81,51.69 C74.4,49.37 72.59,49.71 72.59,49.71 Z" fill="url(#SVGID_5_)" opacity="0.22"/>
  <path d="M68.37,18.82 L74.35,12.86 C74.68,12.53 75.25,12.8 75.2,13.27 L74.43,20.26 C74.4,20.53 74.59,20.78 74.87,20.81 L83.43,21.83 C83.93,21.89 84.04,22.57 83.57,22.78 L74.65,26.77 C74.52,26.83 74.42,26.95 74.38,27.09 L71.8,35.94 C71.68,36.37 71.1,36.43 70.89,36.04 L66.9,28.79 C66.81,28.62 66.62,28.52 66.42,28.53 L58.76,29.15 C58.29,29.19 58.04,28.62 58.37,28.3 L63.45,23.35 C63.6,23.21 63.64,22.98 63.56,22.79 L60.87,16.64 C60.69,16.22 61.12,15.79 61.54,15.99 L67.83,18.93 C68,19.01 68.22,18.97 68.37,18.82 Z" fill="url(#SVGID_6_)"/>
  <path d="M90.09,63.26 L94.83,65.45 C94.95,65.51 95.09,65.49 95.19,65.41 L99.94,61.82 C100.19,61.63 100.53,61.83 100.51,62.13 L100.06,68.03 C100.05,68.16 100.11,68.29 100.23,68.36 L104.76,71.16 C105.03,71.33 104.96,71.75 104.64,71.81 L98.96,72.98 C98.82,73.01 98.71,73.11 98.68,73.25 L97.47,78.6 C97.4,78.92 96.97,78.98 96.81,78.69 L94.29,74.08 C94.23,73.96 94.1,73.89 93.97,73.89 L88.01,74.08 C87.7,74.09 87.53,73.73 87.72,73.49 L91.56,68.9 C91.65,68.8 91.67,68.66 91.62,68.53 L89.6,63.71 C89.49,63.42 89.8,63.12 90.09,63.26 Z" fill="url(#SVGID_7_)"/>
  <path d="M109.65,11.65 L118.08,7.91 C118.5,7.72 118.87,8.14 118.65,8.54 L114.48,16.22 C114.38,16.4 114.4,16.62 114.53,16.76 L123.56,25.52 C123.83,25.8 123.6,26.3 123.19,26.32 L112.11,24.37 C111.94,24.38 111.78,24.48 111.69,24.64 L105.86,35.31 C105.64,35.7 105.08,35.66 104.99,35.25 L103.85,24.86 C103.81,24.68 103.65,24.55 103.46,24.53 L94.31,23.04 C93.92,23.01 93.77,22.54 94.07,22.25 L101.72,16.37 C101.83,16.26 101.89,16.11 101.87,15.96 L100.5,4.38 C100.46,3.94 101.01,3.65 101.32,3.95 L109.14,11.57 C109.27,11.69 109.47,11.72 109.65,11.65 Z" fill="url(#SVGID_8_)"/>
  <path d="M96.29,26.87 C92.55,27.83 88.76,28.66 84.89,28.98 C81.02,29.33 77.09,29.05 73.27,28.36 C69.45,27.65 65.7,26.76 61.92,26.06 C58.14,25.36 54.34,24.8 50.52,24.36 C48.61,24.14 46.69,23.98 44.78,23.79 C42.91,23.61 41.06,23.66 39.3,24.07 C37.57,24.51 35.96,25.34 34.92,26.7 C33.87,28.04 33.37,29.78 33.37,31.57 C33.35,35.18 34.8,38.78 36.64,42.03 C38.49,45.3 40.92,48.27 43.35,51.24 C48.19,57.2 53.42,62.87 58.61,68.58 C61.21,71.44 63.81,74.29 66.37,77.19 C68.95,80.07 71.44,83.04 73.82,86.1 C76.21,89.15 78.48,92.34 80.33,95.8 C80.79,96.64 81.3,97.57 81.45,98.69 C81.5,99.26 81.44,99.89 81.12,100.45 C80.8,101.01 80.27,101.36 79.76,101.59 C78.71,102.01 77.67,102.04 76.67,101.99 C75.67,101.93 74.69,101.77 73.73,101.55 C69.91,100.62 66.34,99.03 62.9,97.24 C61.18,96.34 59.5,95.38 57.85,94.37 C56.21,93.35 54.6,92.27 53.02,91.17 C56.3,93.21 59.66,95.11 63.13,96.76 C66.6,98.4 70.21,99.83 73.92,100.58 C74.85,100.75 75.78,100.89 76.7,100.92 C77.62,100.95 78.55,100.87 79.29,100.55 C79.65,100.38 79.95,100.16 80.1,99.86 C80.25,99.57 80.29,99.2 80.25,98.81 C80.13,98.01 79.7,97.21 79.21,96.38 C77.34,93.08 75.05,90 72.61,87.04 C62.85,75.2 51.73,64.44 41.81,52.5 C39.38,49.49 36.92,46.43 34.99,42.96 C33.09,39.52 31.52,35.7 31.57,31.53 C31.59,29.47 32.19,27.3 33.55,25.6 C34.9,23.87 36.92,22.87 38.91,22.39 C40.92,21.95 42.98,21.9 44.95,22.13 C46.87,22.37 48.8,22.57 50.72,22.84 C54.56,23.38 58.38,24.04 62.17,24.83 C65.96,25.63 69.71,26.59 73.46,27.4 C77.2,28.22 81.02,28.65 84.86,28.45 C88.69,28.27 92.5,27.62 96.29,26.87 Z" fill="#FDD835"/>
  <path d="M67.78,35.64 C56.53,38.26 43.62,30.64 31.7,31.98 C27.15,32.58 25.28,38.02 29.65,46.64 C38.23,61.41 50.75,70.13 55.37,75.54 C49.16,72.06 36.4,62.89 27.53,54.26 C14.18,41.46 16.65,25.46 29.03,25.51 C33.18,25.11 41.21,27.11 44.57,28.34 C47.88,29.67 59.15,34.58 67.78,35.64 Z" fill="url(#SVGID_9_)"/>
</svg>
